svgs/oald.svg

<svg width="192" height="192" viewBox="0 0 192 192" fill="none" xmlns="http://www.w3.org/2000/svg">
<path d="M40 96.6421L41.6875 91.5263M41.6875 91.5263L44.3125 83L46.9375 91.5263M41.6875 91.5263H44.3125H46.9375M48.625 96.6421L46.9375 91.5263" stroke="black" stroke-width="6" stroke-linecap="round" stroke-linejoin="round"/>
<path d="M55.375 83V96.6421H64" stroke="black" stroke-width="6" stroke-linecap="round" stroke-linejoin="round"/>
<path d="M70 96.5758V83.2439C73.7159 82.0374 77.875 85.4948 77.875 89.4772C77.875 93.4597 73.7793 97.1886 70 96.5758Z" stroke="black" stroke-width="6" stroke-linecap="round" stroke-linejoin="round"/>
<path d="M96 50.5878L111.203 44H171V140.791H111.709L96 147.378L80.2905 140.791H21V44H81.3041L96 50.5878ZM96 50.5878V142.5" stroke="black" stroke-width="10" stroke-linecap="round" stroke-linejoin="round"/>
<circle cx="58.75" cy="89.75" r="28.75" stroke="black" stroke-width="6"/>
<path d="M106.5 63.5H123.5M106.5 76.5H160.5M106.5 88H160.5M106.5 99.5H160.5M106.5 111H160.5M106.5 122.5H160.5" stroke="black" stroke-width="6" stroke-linecap="round" stroke-linejoin="round"/>
<path d="M79 111L123.5 152" stroke="black" stroke-width="6" stroke-linecap="round" stroke-linejoin="round"/>
</svg>

<svg width="192" height="192" viewBox="0 0 192 192" fill="none" xmlns="http://www.w3.org/2000/svg"><path d="m40 96.642 1.688-5.116m0 0L44.312 83l2.626 8.526m-5.25 0h5.25m1.687 5.116-1.688-5.116M55.375 83v13.642H64M70 96.576V83.244c3.716-1.207 7.875 2.25 7.875 6.233 0 3.983-4.096 7.712-7.875 7.099Z" stroke="#000" stroke-width="6" stroke-linecap="round" stroke-linejoin="round"/><path d="M96 50.588 111.203 44H171v96.791h-59.291L96 147.378l-15.71-6.587H21V44h60.304L96 50.588Zm0 0V142.5" stroke="#000" stroke-width="10" stroke-linecap="round" stroke-linejoin="round"/><circle cx="58.75" cy="89.75" r="28.75" stroke="#000" stroke-width="6"/><path d="M106.5 63.5h17m-17 13h54m-54 11.5h54m-54 11.5h54m-54 11.5h54m-54 11.5h54M79 111l44.5 41" stroke="#000" stroke-width="6" stroke-linecap="round" stroke-linejoin="round"/></svg>
